X:1
T:Kyrie
T:Kyrie
T:Roger Petrich
C:Roger Petrich
%%score [ 1 2 3 4 ]
L:1/8
Q:1/2=120
M:4/4
K:Bmin
V:1 treble nm="Soprano" snm="S"
V:2 treble nm="Alto" snm="A"
V:3 treble-8 nm="Tenor" snm="T"
V:4 bass nm="Bass" snm="B"
V:1
"^Smoothly" F4 G4 | F4 E4 | F8 | B,8- | B,4 B4 | (B2 c2 d2) c2 | B4 A4- | A4 G2 A2 | F8- | F8 || %10
w: Ky- ri-|e e-|lei-|son|* e-|le- * * i-|son e-|* le- i-|son.||
 (E4 F4) | E4 D4 | E4 A4- | A8 | (F4 G4) | F4 E4 | C8 | C8 || B4 c4 | B4 A4 | B8 | F8- | F4 B4 | %23
w: Chri- *|ste e-|lei- son||Chri- *|ste e-|lei-|son|Ky- ri-|e e-|lei-|son|* e-|
 (B2 c2 d2) c2 | B4 c4- | c4 A4- | A4 B4 | F8- | F8- | F8 |] %30
w: le- * * i-|son e-|* le-|* i-|son|||
V:2
"^Smoothly" F4 G4 | F4 E4 | F8 | B,8- | B,4 B4 | (G2 A2 B2) A2 | G4 E4 | D4 D4 | E6 D2- | D4 C4 || %10
w: Ky- ri-|e e-|lei-|son|* e-|le- * * i-|son e-|le- i-|son. Chri-|* ste|
 B,4 C4 | B,4 A,4 | B,4 C4- | C8 | (C4 D4) | C4 B,4 | B,8 | C8 || B4 c4 | B4 A4 | B8 | F8- | %22
w: Chri- *|ste e-|lei- son||Chri- *|ste e-|lei-|son|Ky- ri-|e e-|lei-|son|
 F4 B4 | (G2 A2 B2) A2 | G4 E4 | G4 E4 | ^D8 | =D6 C2- | C4 ^D4- | D8 |] %30
w: * e-|le- * * i-|son. e-|le- i-|son.|e- lei-|* son||
V:3
"^Smoothly" F4 G4 | F4 E4 | F8 | B,8- | B,4 B4 | (d2 e2 f2) e2 | d4 c4 | B4 B4 | c6 B2- | B4 A4 || %10
w: Ky- ri-|e e-|lei-||* e-|le- * * i-|son e-|le- i-|son. Chri-|* ste|
 G4 A4 | G4 F4 | G4 A4- | A8 | (A4 B4) | A4 G4 | ^G8 | ^A8 || B4 c4 | B4 A4 | B8 | F8- | F4 B4 | %23
w: Chri- *|ste e-|lei- son||Chri- *|ste e-|lei-|son|Ky- ri-|e e-|lei-|son|* e-|
 (d2 e2 f2) e2 | d4 c4 | d4 c4 | B8 | ^G6 G2- | G4 F4- | F8 |] %30
w: le- * * i-|son e-|le- i-|son.|e- lei-|* son||
V:4
"^Smoothly""^The opening phrase is borrowed from the Kyrie \"Orbis factor\"" F,4 G,4 | F,4 E,4 | %2
w: Ky- ri-|e e-|
 F,8 | B,,8- | B,,4 B,4 | (G,2 F,2 E,2) F,2 | G,4 A,4 | B,4 E,4 | D,8- | D,8 || A,,8- | A,,8 | %12
w: lei-|son|* e-|le- * * i-|son e-|le- i-|son.||Chri-||
 A,,8 | A,,4 A,,4 | D,8 | D,4 E,4 | F,8 | F,8 || B,4 C4 | B,4 A,4 | B,8 | F,8- | F,4 B,4 | %23
w: ste|Chri- ste|Chri-|ste e-|lei-|son|Ky- ri-|e e-|lei-|son|* e-|
 (G,2 F,2 E,2) F,2 | G,4 F,4 | E,4 G,4 | F,8 | E,6 B,,2- | B,,4 B,,4- | B,,8 |] %30
w: le- * * i-|son e-|le- i-|son.|e- lei-|* son||

